build/svg/cmd/sc_groupbox.svg

<?xml version="1.0" encoding="UTF-8" standalone="no"?>
<svg
   xmlns:dc="http://purl.org/dc/elements/1.1/"
   xmlns:cc="http://creativecommons.org/ns#"
   xmlns:rdf="http://www.w3.org/1999/02/22-rdf-syntax-ns#"
   xmlns:svg="http://www.w3.org/2000/svg"
   xmlns="http://www.w3.org/2000/svg"
   xmlns:sodipodi="http://sodipodi.sourceforge.net/DTD/sodipodi-0.dtd"
   xmlns:inkscape="http://www.inkscape.org/namespaces/inkscape"
   viewBox="0 0 16 16"
   version="1.1"
   id="svg29"
   sodipodi:docname="sc_groupbox.svg"
   inkscape:version="0.92.5 (2060ec1f9f, 2020-04-08)"
   inkscape:export-filename="/home/jupiter007/Libreoffice yaru theme fullcolor/build/cmd/sc_groupbox.png"
   inkscape:export-xdpi="95"
   inkscape:export-ydpi="95"><metadata
   id="metadata35">
  <rdf:RDF>
    <cc:Work
       rdf:about="">
      <dc:format>image/svg+xml</dc:format>
      <dc:type
         rdf:resource="http://purl.org/dc/dcmitype/StillImage" />
    </cc:Work>
  </rdf:RDF>
</metadata>
<defs
   id="defs33" />
<sodipodi:namedview
   pagecolor="#ffffff"
   bordercolor="#666666"
   borderopacity="1"
   objecttolerance="10"
   gridtolerance="10"
   guidetolerance="10"
   inkscape:pageopacity="0"
   inkscape:pageshadow="2"
   inkscape:window-width="1920"
   inkscape:window-height="1011"
   id="namedview31"
   showgrid="true"
   inkscape:zoom="14.75"
   inkscape:cx="0.44067797"
   inkscape:cy="8"
   inkscape:window-x="1920"
   inkscape:window-y="32"
   inkscape:window-maximized="1"
   inkscape:current-layer="svg29">
  <inkscape:grid
     type="xygrid"
     id="grid850" />
</sodipodi:namedview>
<linearGradient
   id="a"
   gradientUnits="userSpaceOnUse"
   x1="9.39"
   x2="9.409"
   y1="2.87"
   y2="13.921">
  <stop
     offset="0"
     stop-color="#fff"
     id="stop2" />
  <stop
     offset=".063"
     stop-color="#fff"
     stop-opacity=".235"
     id="stop4" />
  <stop
     offset=".951"
     stop-color="#fff"
     stop-opacity=".157"
     id="stop6" />
  <stop
     offset="1"
     stop-color="#fff"
     stop-opacity=".392"
     id="stop8" />
</linearGradient>
<linearGradient
   id="b"
   gradientUnits="userSpaceOnUse"
   x1="8"
   x2="8"
   y1="14"
   y2="6">
  <stop
     offset="0"
     stop-color="#e9e9e9"
     id="stop11" />
  <stop
     offset="1"
     stop-color="#f6f6f6"
     id="stop13" />
</linearGradient>
<linearGradient
   id="c"
   gradientUnits="userSpaceOnUse"
   x1="8.48945"
   x2="5.4142"
   y1="4.2966"
   y2=".6063">
  <stop
     offset="0"
     stop-color="#1f1f1f"
     id="stop16" />
  <stop
     offset="1"
     stop-color="#5c5c5c"
     id="stop18" />
</linearGradient>
/&amp;gt;<path
   sodipodi:nodetypes="cccscsccccccccscscccccc"
   inkscape:connector-curvature="0"
   id="path4237-1"
   d="m 4.9941517,1.9992761 c -1.2581999,0.0145 -2.178891,-0.030604 -2.9316409,0.3847657 -0.3763697,0.2076599 -0.6732307,0.559387 -0.8378907,0.9980468 -0.16467,0.43867 -0.224609,0.9595875 -0.224609,1.6171875 V 6.4875567 12 c 0,0.65761 0.0599,1.178577 0.224609,1.617188 0.1646801,0.438611 0.4615311,0.788524 0.8378907,0.996093 0.75272,0.41513 1.673541,0.371649 2.9316409,0.386719 h 0.002 6.0057863 0.0039 c 1.25819,-0.0145 2.178892,0.0306 2.931641,-0.384766 0.376371,-0.20766 0.673222,-0.559386 0.837892,-0.998046 C 14.939909,13.178517 14.999989,12.65761 14.999989,12 V 6.4660727 4.9992761 c 0,-0.6576 -0.0599,-1.1785776 -0.224609,-1.6171875 C 14.610698,2.9434887 14.313847,2.5935548 13.937488,2.385995 13.184717,1.9708649 12.263886,2.0143562 11.005797,1.9992761 h -0.002 -6.0057864 z"
   style="font-style:normal;font-variant:normal;font-weight:normal;font-stretch:normal;font-size:15px;line-height:125%;font-family:Ubuntu;-inkscape-font-specification:Ubuntu;text-align:center;letter-spacing:0px;word-spacing:0px;writing-mode:lr-tb;text-anchor:middle;display:inline;opacity:0.6;fill:#000000;fill-opacity:1;stroke:none;stroke-width:0.99980211" />
<path
   inkscape:connector-curvature="0"
   id="path1993"
   d="M 4.9830109,3.0264609 C 3.42643,3.0372569 4.8733897,3.0147089 3.3234388,3.0652359 c -0.461229,0.042668 -1.016188,0.2064193 -1.15534,0.7099666 -0.218994,0.6353465 -0.108414,1.3337876 -0.145796,1.9819246 -0.0078,2.2970846 -0.02297,4.5965689 0.02152,6.8859209 0.0391,0.461929 0.202551,1.012666 0.698756,1.163666 0.632456,0.225082 1.284144,0.12274 1.935974,0.154298 1.424235,0.0068 -0.1498058,0.01102 1.2760512,0.01131 1.7045309,3.5e-4 4.408683,-0.005 6.107486,-0.01851 0.511911,-0.01201 1.183699,0.01993 1.584745,-0.405191 0.421097,-0.539783 0.287073,-1.268021 0.322744,-1.903787 0.01187,-2.4443231 0.02769,-4.9112353 -0.0219,-7.3569354 C 13.8984,3.8858583 13.777688,3.4249466 13.372541,3.2434235 12.704372,2.949326 11.946336,3.0754046 11.246619,3.0378507 9.4922131,3.0260482 6.73745,3.0253663 4.9830109,3.0264609 Z"
   style="opacity:1;vector-effect:none;fill:#ffffff;fill-opacity:1;stroke:none;stroke-width:1;stroke-linecap:round;stroke-linejoin:bevel;stroke-miterlimit:4;stroke-dasharray:none;stroke-dashoffset:0;stroke-opacity:1"
   sodipodi:nodetypes="cccccccsccccccc" />
<path
   inkscape:connector-curvature="0"
   id="path867"
   d="M 5.923828,0.99996212 5.076172,1.5312121 7.498047,5.4101181 v 2.855469 h 1 V 5.4081651 L 10.923828,1.5312121 10.076172,0.99996212 7.998047,4.3222281 Z"
   style="color:#000000;font-style:normal;font-variant:normal;font-weight:normal;font-stretch:normal;font-size:medium;line-height:normal;font-family:sans-serif;font-variant-ligatures:normal;font-variant-position:normal;font-variant-caps:normal;font-variant-numeric:normal;font-variant-alternates:normal;font-feature-settings:normal;text-indent:0;text-align:start;text-decoration:none;text-decoration-line:none;text-decoration-style:solid;text-decoration-color:#000000;letter-spacing:normal;word-spacing:normal;text-transform:none;writing-mode:lr-tb;direction:ltr;text-orientation:mixed;dominant-baseline:auto;baseline-shift:baseline;text-anchor:start;white-space:normal;shape-padding:0;clip-rule:nonzero;display:inline;overflow:visible;visibility:visible;opacity:0.8;isolation:auto;mix-blend-mode:normal;color-interpolation:sRGB;color-interpolation-filters:linearRGB;solid-color:#000000;solid-opacity:1;vector-effect:none;fill:#ffffff;fill-opacity:1;fill-rule:nonzero;stroke:#ffffff;stroke-width:2;stroke-linecap:butt;stroke-linejoin:round;stroke-miterlimit:4;stroke-dasharray:none;stroke-dashoffset:0;stroke-opacity:1;color-rendering:auto;image-rendering:auto;shape-rendering:auto;text-rendering:auto;enable-background:accumulate" />
<path
   style="color:#000000;font-style:normal;font-variant:normal;font-weight:normal;font-stretch:normal;font-size:medium;line-height:normal;font-family:sans-serif;font-variant-ligatures:normal;font-variant-position:normal;font-variant-caps:normal;font-variant-numeric:normal;font-variant-alternates:normal;font-feature-settings:normal;text-indent:0;text-align:start;text-decoration:none;text-decoration-line:none;text-decoration-style:solid;text-decoration-color:#000000;letter-spacing:normal;word-spacing:normal;text-transform:none;writing-mode:lr-tb;direction:ltr;text-orientation:mixed;dominant-baseline:auto;baseline-shift:baseline;text-anchor:start;white-space:normal;shape-padding:0;clip-rule:nonzero;display:inline;overflow:visible;visibility:visible;opacity:1;isolation:auto;mix-blend-mode:normal;color-interpolation:sRGB;color-interpolation-filters:linearRGB;solid-color:#000000;solid-opacity:1;vector-effect:none;fill:#000000;fill-opacity:1;fill-rule:nonzero;stroke:none;stroke-width:0.99995255px;stroke-linecap:butt;stroke-linejoin:miter;stroke-miterlimit:4;stroke-dasharray:none;stroke-dashoffset:0;stroke-opacity:1;color-rendering:auto;image-rendering:auto;shape-rendering:auto;text-rendering:auto;enable-background:accumulate"
   d="M 5.923828,0.99996212 5.076172,1.5312121 7.498047,5.4101181 v 2.855469 h 1 V 5.4081651 L 10.923828,1.5312121 10.076172,0.99996212 7.998047,4.3222281 Z"
   id="path858"
   inkscape:connector-curvature="0" />
</svg>

<svg xmlns="http://www.w3.org/2000/svg" viewBox="0 0 16 16">/&amp;gt;<path d="M4.994 2c-1.258.014-2.179-.031-2.931.384a1.88 1.88 0 00-.838.998C1.06 3.821 1 4.342 1 5V12c0 .658.06 1.179.225 1.617.164.439.461.789.838.996.752.415 1.673.372 2.931.387h6.012c1.258-.015 2.179.03 2.931-.385a1.88 1.88 0 00.838-.998c.165-.438.225-.96.225-1.617V4.999c0-.657-.06-1.178-.225-1.617a1.875 1.875 0 00-.838-.996c-.752-.415-1.673-.372-2.931-.387H4.998z" style="line-height:125%;-inkscape-font-specification:Ubuntu;text-align:center" font-weight="400" font-size="15" font-family="Ubuntu" letter-spacing="0" word-spacing="0" text-anchor="middle" opacity=".6"/><path d="M4.983 3.026c-1.557.011-.11-.011-1.66.04-.46.042-1.016.206-1.155.71-.219.635-.108 1.333-.146 1.981-.007 2.297-.023 4.597.022 6.886.039.462.202 1.013.699 1.164.632.225 1.284.122 1.936.154 1.424.007-.15.011 1.276.011 1.704 0 4.408-.005 6.107-.018.512-.012 1.184.02 1.585-.405.42-.54.287-1.268.323-1.904.011-2.444.027-4.911-.022-7.357-.05-.402-.17-.863-.575-1.045-.669-.294-1.427-.168-2.126-.205-1.755-.012-4.51-.013-6.264-.012z" fill="#fff"/><path d="M5.924 1l-.848.531 2.422 3.88v2.855h1V5.408l2.426-3.877L10.076 1 7.998 4.322z" style="line-height:normal;font-variant-ligatures:normal;font-variant-position:normal;font-variant-caps:normal;font-variant-numeric:normal;font-variant-alternates:normal;font-feature-settings:normal;text-indent:0;text-align:start;text-decoration-line:none;text-decoration-style:solid;text-decoration-color:#000;text-transform:none;text-orientation:mixed;white-space:normal;shape-padding:0;isolation:auto;mix-blend-mode:normal;solid-color:#000;solid-opacity:1" color="#000" font-weight="400" font-family="sans-serif" overflow="visible" opacity=".8" fill="#fff" stroke="#fff" stroke-width="2" stroke-linejoin="round"/><path style="line-height:normal;font-variant-ligatures:normal;font-variant-position:normal;font-variant-caps:normal;font-variant-numeric:normal;font-variant-alternates:normal;font-feature-settings:normal;text-indent:0;text-align:start;text-decoration-line:none;text-decoration-style:solid;text-decoration-color:#000;text-transform:none;text-orientation:mixed;white-space:normal;shape-padding:0;isolation:auto;mix-blend-mode:normal;solid-color:#000;solid-opacity:1" d="M5.924 1l-.848.531 2.422 3.88v2.855h1V5.408l2.426-3.877L10.076 1 7.998 4.322z" color="#000" font-weight="400" font-family="sans-serif" overflow="visible"/></svg>
